src/assets/outline/House.svg

<svg width="24" height="24" viewBox="0 0 24 24"  xmlns="http://www.w3.org/2000/svg">
<path d="M22 22.75H2C1.59 22.75 1.25 22.41 1.25 22C1.25 21.59 1.59 21.25 2 21.25H22C22.41 21.25 22.75 21.59 22.75 22C22.75 22.41 22.41 22.75 22 22.75Z" />
<path d="M3.7002 21.9997H2.2002L2.25019 9.96971C2.25019 9.11971 2.6402 8.32974 3.3102 7.80974L10.3102 2.35973C11.3002 1.58973 12.6902 1.58973 13.6902 2.35973L20.6902 7.79973C21.3502 8.31973 21.7502 9.12971 21.7502 9.96971V21.9997H20.2502V9.97972C20.2502 9.59972 20.0702 9.22973 19.7702 8.98973L12.7702 3.54973C12.3202 3.19973 11.6902 3.19973 11.2302 3.54973L4.23019 8.99974C3.93019 9.22974 3.75019 9.59972 3.75019 9.97972L3.7002 21.9997Z" />
<path d="M14.5 22.75H9.5C9.09 22.75 8.75 22.41 8.75 22V18.5C8.75 17.26 9.76 16.25 11 16.25H13C14.24 16.25 15.25 17.26 15.25 18.5V22C15.25 22.41 14.91 22.75 14.5 22.75ZM10.25 21.25H13.75V18.5C13.75 18.09 13.41 17.75 13 17.75H11C10.59 17.75 10.25 18.09 10.25 18.5V21.25Z" />
<path d="M9.5 14.5H7.5C6.54 14.5 5.75 13.71 5.75 12.75V11.25C5.75 10.29 6.54 9.5 7.5 9.5H9.5C10.46 9.5 11.25 10.29 11.25 11.25V12.75C11.25 13.71 10.46 14.5 9.5 14.5ZM7.5 11C7.36 11 7.25 11.11 7.25 11.25V12.75C7.25 12.89 7.36 13 7.5 13H9.5C9.64 13 9.75 12.89 9.75 12.75V11.25C9.75 11.11 9.64 11 9.5 11H7.5Z" />
<path d="M16.5 14.5H14.5C13.54 14.5 12.75 13.71 12.75 12.75V11.25C12.75 10.29 13.54 9.5 14.5 9.5H16.5C17.46 9.5 18.25 10.29 18.25 11.25V12.75C18.25 13.71 17.46 14.5 16.5 14.5ZM14.5 11C14.36 11 14.25 11.11 14.25 11.25V12.75C14.25 12.89 14.36 13 14.5 13H16.5C16.64 13 16.75 12.89 16.75 12.75V11.25C16.75 11.11 16.64 11 16.5 11H14.5Z" />
<path d="M19.0001 7.75C18.5901 7.75 18.2501 7.42001 18.2501 7.01001L18.2301 4.75H14.5801C14.1701 4.75 13.8301 4.41 13.8301 4C13.8301 3.59 14.1701 3.25 14.5801 3.25H18.9801C19.3901 3.25 19.7301 3.57999 19.7301 3.98999L19.7601 6.98999C19.7501 7.40999 19.4201 7.75 19.0001 7.75C19.0001 7.75 19.0101 7.75 19.0001 7.75Z" />
</svg>

<?xml version="1.0" encoding="UTF-8"?>
<svg width="24" height="24" viewBox="0 0 24 24" xmlns="http://www.w3.org/2000/svg">
 <path d="m22 22.75h-20c-0.41 0-0.75-0.34-0.75-0.75s0.34-0.75 0.75-0.75h20c0.41 0 0.75 0.34 0.75 0.75s-0.34 0.75-0.75 0.75z"/>
 <path d="m3.7002 22h-1.5l0.04999-12.03c0-0.85 0.39001-1.64 1.06-2.16l7-5.45c0.99-0.77 2.38-0.77 3.38 0l7 5.44c0.66 0.52 1.06 1.33 1.06 2.17v12.03h-1.5v-12.02c0-0.38-0.18-0.74999-0.48-0.98999l-7-5.44c-0.45-0.35-1.08-0.35-1.54 0l-7 5.45c-0.3 0.23-0.48 0.59998-0.48 0.97998l-0.04999 12.02z"/>
 <path d="m14.5 22.75h-5c-0.41 0-0.75-0.34-0.75-0.75v-3.5c0-1.24 1.01-2.25 2.25-2.25h2c1.24 0 2.25 1.01 2.25 2.25v3.5c0 0.41-0.34 0.75-0.75 0.75zm-4.25-1.5h3.5v-2.75c0-0.41-0.34-0.75-0.75-0.75h-2c-0.41 0-0.75 0.34-0.75 0.75v2.75z"/>
 <path d="m9.5 14.5h-2c-0.96 0-1.75-0.79-1.75-1.75v-1.5c0-0.96 0.79-1.75 1.75-1.75h2c0.96 0 1.75 0.79 1.75 1.75v1.5c0 0.96-0.79 1.75-1.75 1.75zm-2-3.5c-0.14 0-0.25 0.11-0.25 0.25v1.5c0 0.14 0.11 0.25 0.25 0.25h2c0.14 0 0.25-0.11 0.25-0.25v-1.5c0-0.14-0.11-0.25-0.25-0.25h-2z"/>
 <path d="m16.5 14.5h-2c-0.96 0-1.75-0.79-1.75-1.75v-1.5c0-0.96 0.79-1.75 1.75-1.75h2c0.96 0 1.75 0.79 1.75 1.75v1.5c0 0.96-0.79 1.75-1.75 1.75zm-2-3.5c-0.14 0-0.25 0.11-0.25 0.25v1.5c0 0.14 0.11 0.25 0.25 0.25h2c0.14 0 0.25-0.11 0.25-0.25v-1.5c0-0.14-0.11-0.25-0.25-0.25h-2z"/>
 <path d="m19 7.75c-0.41 0-0.75-0.32999-0.75-0.73999l-0.02-2.26h-3.65c-0.41 0-0.75-0.34-0.75-0.75s0.34-0.75 0.75-0.75h4.4c0.41 0 0.75 0.32999 0.75 0.73999l0.03 3c-0.01 0.42-0.34 0.76001-0.76 0.76001 0 0 0.01 0 0 0z"/>
</svg>
